styles/2/Numix/22/places/blue-folder-ubuntu.svg

<?xml version="1.0" encoding="UTF-8" standalone="no"?>
<svg
   xmlns:dc="http://purl.org/dc/elements/1.1/"
   xmlns:cc="http://creativecommons.org/ns#"
   xmlns:rdf="http://www.w3.org/1999/02/22-rdf-syntax-ns#"
   xmlns:svg="http://www.w3.org/2000/svg"
   xmlns="http://www.w3.org/2000/svg"
   xmlns:sodipodi="http://sodipodi.sourceforge.net/DTD/sodipodi-0.dtd"
   xmlns:inkscape="http://www.inkscape.org/namespaces/inkscape"
   width="22"
   height="22"
   viewBox="0 0 22 22"
   id="svg3087"
   version="1.1"
   inkscape:version="0.91 r"
   sodipodi:docname="blue-folder-ubuntu.svg">
  <metadata
     id="metadata3101">
    <rdf:RDF>
      <cc:Work
         rdf:about="">
        <dc:format>image/svg+xml</dc:format>
        <dc:type
           rdf:resource="http://purl.org/dc/dcmitype/StillImage" />
      </cc:Work>
    </rdf:RDF>
  </metadata>
  <defs
     id="defs3099" />
  <sodipodi:namedview
     pagecolor="#ffffff"
     bordercolor="#666666"
     borderopacity="1"
     objecttolerance="10"
     gridtolerance="10"
     guidetolerance="10"
     inkscape:pageopacity="0"
     inkscape:pageshadow="2"
     inkscape:window-width="1280"
     inkscape:window-height="998"
     id="namedview3097"
     showgrid="true"
     inkscape:zoom="21.454545"
     inkscape:cx="5.0106705"
     inkscape:cy="13.749862"
     inkscape:window-x="0"
     inkscape:window-y="0"
     inkscape:window-maximized="1"
     inkscape:current-layer="svg3087">
    <inkscape:grid
       type="xygrid"
       id="grid2984" />
  </sodipodi:namedview>
  <path
     style="font-size:medium;font-style:normal;font-variant:normal;font-weight:normal;font-stretch:normal;text-indent:0;text-align:start;text-decoration:none;line-height:normal;letter-spacing:normal;word-spacing:normal;text-transform:none;direction:ltr;block-progression:tb;writing-mode:lr-tb;text-anchor:start;baseline-shift:baseline;color:#000000;fill:#42a5f5;fill-opacity:1;fill-rule:nonzero;stroke:none;stroke-width:1.03313816;marker:none;visibility:visible;display:inline;overflow:visible;enable-background:accumulate;font-family:Sans;-inkscape-font-specification:Sans"
     d="m 3.0000113,2.0000002 c -0.54733,0 -1,0.4096882 -1,1 l 0,1 -0.9999998,0 c -0.50192719,0 -0.999999988889,0.3847489 -0.999999988889,1 -1.51999999e-5,4.5937493 0,9.4062498 0,13.9999998 0,0.545771 0.493417298889,1 0.999999988889,1 l 20.0000005,0 c 0.515688,0 1,-0.437034 1,-1 l 0,-12.9999998 c 0,-0.5770209 -0.423105,-1 -1,-1 l -2,0 0,-2 c 0,-0.4874255 -0.401824,-1 -1,-1 z"
     id="path2995"
     inkscape:connector-curvature="0"
     sodipodi:nodetypes="ccccccssssscssc" />
  <path
     style="font-size:medium;font-style:normal;font-variant:normal;font-weight:normal;font-stretch:normal;text-indent:0;text-align:start;text-decoration:none;line-height:normal;letter-spacing:normal;word-spacing:normal;text-transform:none;direction:ltr;block-progression:tb;writing-mode:lr-tb;text-anchor:start;baseline-shift:baseline;color:#000000;fill:#000000;fill-opacity:0.32156863;fill-rule:nonzero;stroke:none;stroke-width:1.03313816;marker:none;visibility:visible;display:inline;overflow:visible;enable-background:accumulate;font-family:Sans;-inkscape-font-specification:Sans"
     d="m 3.0000113,2.0000002 c -0.544454,0 -1,0.3988699 -1,1 l 0,1 -0.9999998,0 c -0.50675939,0 -0.999999988889,0.3964676 -0.999999988889,1 -2.59e-5,4.5937491 0,9.4062498 0,13.9999998 0,0.487177 0.419198598889,1 0.999999988889,1 l 20.0000005,0 c 0.521212,0 1,-0.442558 1,-1 l 0,-12.9999998 c 0,-0.5731146 -0.393904,-1 -1,-1 l -2,0 0,-2 c 0,-0.5585119 -0.457433,-1 -1,-1 z m 10.0000007,3 0,1 8,0 0,12.9999998 -20.0000005,0 0,-13.9999998 z"
     id="path3786"
     inkscape:connector-curvature="0"
     sodipodi:nodetypes="ssccccssssscsssccccccc" />
  <path
     style="opacity:1;fill:#000000;fill-opacity:0.32156864000000002;stroke:none"
     d="M 14 7 C 13.447715 7 13 7.4477153 13 8 C 13 8.5522847 13.447715 9 14 9 C 14.552285 9 15 8.5522847 15 8 C 15 7.4477153 14.552285 7 14 7 z M 11 8 C 8.7805057 8 6.9343463 9.4673108 6.28125 11.46875 C 6.7204655 11.835618 7 12.382948 7 13 C 7 13.617052 6.7204655 14.164382 6.28125 14.53125 C 6.9343463 16.532689 8.7805057 18 11 18 C 11.345178 18 11.674512 17.97285 12 17.90625 C 12.049335 16.845528 12.927106 16 14 16 C 14.291093 16 14.563018 16.07569 14.8125 16.1875 C 15.542374 15.318457 16 14.223684 16 13 C 16 11.776316 15.542374 10.681543 14.8125 9.8125 C 14.563018 9.924313 14.291093 10 14 10 C 12.927106 10 12.049335 9.1544717 12 8.09375 C 11.674512 8.0271455 11.345178 8 11 8 z M 11 10 C 12.656854 10 14 11.343146 14 13 C 14 14.656854 12.656854 16 11 16 C 9.3431458 16 8 14.656854 8 13 C 8 11.343146 9.3431458 10 11 10 z M 5 12 C 4.4477153 12 4 12.447715 4 13 C 4 13.552285 4.4477153 14 5 14 C 5.5522847 14 6 13.552285 6 13 C 6 12.447715 5.5522847 12 5 12 z M 14 17 C 13.447715 17 13 17.447715 13 18 C 13 18.552285 13.447715 19 14 19 C 14.552285 19 15 18.552285 15 18 C 15 17.447715 14.552285 17 14 17 z "
     id="path3030" />
</svg>

<svg xmlns="http://www.w3.org/2000/svg" viewBox="0 0 22 22">
 <path d="m 3 2 c -0.547 0 -1 0.41 -1 1 l 0 1 -1 0 c -0.502 0 -1 0.385 -1 1 0 4.594 0 9.406 0 14 0 0.546 0.493 1 1 1 l 20 0 c 0.516 0 1 -0.437 1 -1 l 0 -13 c 0 -0.577 -0.423 -1 -1 -1 l -2 0 0 -2 c 0 -0.487 -0.402 -1 -1 -1 z" style="visibility:visible;fill:#42a5f5;fill-opacity:1;stroke:none;display:inline;color:#000;fill-rule:nonzero"/>
 <path d="m 3 2 c -0.544 0 -1 0.399 -1 1 l 0 1 -1 0 c -0.507 0 -1 0.396 -1 1 0 4.594 0 9.406 0 14 0 0.487 0.419 1 1 1 l 20 0 c 0.521 0 1 -0.443 1 -1 l 0 -13 c 0 -0.573 -0.394 -1 -1 -1 l -2 0 0 -2 c 0 -0.559 -0.457 -1 -1 -1 z m 10 3 0 1 8 0 0 13 -20 0 0 -14 z" style="visibility:visible;fill:#000;fill-opacity:0.322;stroke:none;display:inline;color:#000;fill-rule:nonzero"/>
 <path d="m 14 7 c -0.552 0 -1 0.448 -1 1 c 0 0.552 0.448 1 1 1 c 0.552 0 1 -0.448 1 -1 c 0 -0.552 -0.448 -1 -1 -1 z m -3 1 c -2.219 0 -4.066 1.467 -4.719 3.469 c 0.439 0.367 0.719 0.914 0.719 1.531 c 0 0.617 -0.28 1.164 -0.719 1.531 c 0.653 2 2.499 3.469 4.719 3.469 c 0.345 0 0.675 -0.027 1 -0.094 c 0.049 -1.061 0.927 -1.906 2 -1.906 c 0.291 0 0.563 0.076 0.813 0.188 c 0.73 -0.869 1.188 -1.964 1.188 -3.188 c 0 -1.224 -0.458 -2.318 -1.188 -3.188 c -0.249 0.112 -0.521 0.188 -0.813 0.188 c -1.073 0 -1.951 -0.846 -2 -1.906 c -0.325 -0.067 -0.655 -0.094 -1 -0.094 z m 0 2 c 1.657 0 3 1.343 3 3 c 0 1.657 -1.343 3 -3 3 c -1.657 0 -3 -1.343 -3 -3 c 0 -1.657 1.343 -3 3 -3 z m -6 2 c -0.552 0 -1 0.448 -1 1 c 0 0.552 0.448 1 1 1 c 0.552 0 1 -0.448 1 -1 c 0 -0.552 -0.448 -1 -1 -1 z m 9 5 c -0.552 0 -1 0.448 -1 1 c 0 0.552 0.448 1 1 1 c 0.552 0 1 -0.448 1 -1 c 0 -0.552 -0.448 -1 -1 -1 z" style="fill:#000;opacity:1;fill-opacity:0.322;stroke:none"/>
</svg>
